dist/img/icons/forget/profits.svg

<svg width="38" height="39" viewBox="0 0 38 39" fill="none" xmlns="http://www.w3.org/2000/svg">
<g clip-path="url(#clip0)">
<path d="M15.7344 7.61719C15.7344 8.02688 16.0669 8.35938 16.4766 8.35938C16.8863 8.35938 17.2188 8.02688 17.2188 7.61719C17.2188 7.2075 16.8863 6.875 16.4766 6.875C16.0669 6.875 15.7344 7.2075 15.7344 7.61719Z" fill="#236EFF"/>
<path d="M29.8359 22.6094C25.3343 22.6094 21.6719 26.2718 21.6719 30.7734C21.6719 35.2751 25.3343 38.9375 29.8359 38.9375C34.3376 38.9375 38 35.2751 38 30.7734C38 26.2718 34.3376 22.6094 29.8359 22.6094ZM29.8359 37.4531C26.1528 37.4531 23.1562 34.4566 23.1562 30.7734C23.1562 27.0903 26.1528 24.0938 29.8359 24.0938C33.5191 24.0938 36.5156 27.0903 36.5156 30.7734C36.5156 34.4566 33.5191 37.4531 29.8359 37.4531Z" fill="#236EFF"/>
<path d="M29.9107 29.9766C29.5015 29.9766 29.1685 29.6436 29.1685 29.2344C29.1685 28.8251 29.5015 28.4922 29.9107 28.4922C30.1736 28.4922 30.4512 28.6264 30.7134 28.8801C31.0081 29.1651 31.4779 29.1575 31.7629 28.8629C32.0479 28.5683 32.0402 28.0985 31.7457 27.8134C31.3691 27.4489 30.9922 27.2427 30.6529 27.1302V26.2656C30.6529 25.8558 30.3206 25.5234 29.9107 25.5234C29.5009 25.5234 29.1685 25.8558 29.1685 26.2656V27.1355C28.3047 27.4418 27.6842 28.2668 27.6842 29.2344C27.6842 30.4621 28.683 31.4609 29.9107 31.4609C30.32 31.4609 30.6529 31.7939 30.6529 32.2031C30.6529 32.6124 30.32 32.9453 29.9107 32.9453C29.5937 32.9453 29.2513 32.7459 28.947 32.3839C28.6832 32.0701 28.2151 32.0297 27.9013 32.2934C27.5875 32.5571 27.5471 33.0252 27.8108 33.339C28.2076 33.8111 28.6741 34.1399 29.1685 34.3057V35.1719C29.1685 35.5817 29.5009 35.9141 29.9107 35.9141C30.3206 35.9141 30.6529 35.5817 30.6529 35.1719V34.302C31.5167 33.9957 32.1373 33.1707 32.1373 32.2031C32.1373 30.9754 31.1385 29.9766 29.9107 29.9766Z" fill="#236EFF"/>
<path d="M23.0684 10.9362C23.1975 10.6948 23.1834 10.402 23.0316 10.1742L17.0941 1.268C16.9565 1.06152 16.7248 0.9375 16.4766 0.9375C16.2284 0.9375 15.9967 1.06152 15.8591 1.268L9.92156 10.1742C9.76971 10.4019 9.75561 10.6948 9.88475 10.9362C10.0139 11.1775 10.2654 11.3281 10.5391 11.3281H12.7656V19.6406H7.125C6.71516 19.6406 6.38281 19.973 6.38281 20.3828V24.0938H0.742188C0.332352 24.0938 0 24.4261 0 24.8359V38.1953C0 38.6051 0.332352 38.9375 0.742188 38.9375C1.82296 38.9375 18.3386 38.9375 19.4453 38.9375C19.8551 38.9375 20.1875 38.6051 20.1875 38.1953V11.3281H22.4141C22.6878 11.3281 22.9392 11.1775 23.0684 10.9362ZM1.48438 25.5781H6.38281V37.4531H1.48438V25.5781ZM7.86719 21.125H12.7656V37.4531H7.86719V21.125ZM19.4453 9.84375C19.0355 9.84375 18.7031 10.1761 18.7031 10.5859V37.4531H14.25V10.5859C14.25 10.1761 13.9176 9.84375 13.5078 9.84375H11.9259L16.4766 3.01763L21.0272 9.84375H19.4453Z" fill="#236EFF"/>
<path d="M16.4766 9.84375C16.0667 9.84375 15.7344 10.1761 15.7344 10.5859V15.0391C15.7344 15.4489 16.0667 15.7812 16.4766 15.7812C16.8864 15.7812 17.2188 15.4489 17.2188 15.0391V10.5859C17.2188 10.1761 16.8864 9.84375 16.4766 9.84375Z" fill="#236EFF"/>
</g>
<defs>
<clipPath id="clip0">
<rect width="38" height="38" fill="#236EFF" transform="translate(0 0.9375)"/>
</clipPath>
</defs>
</svg>

<svg width="38" height="39" fill="none" xmlns="http://www.w3.org/2000/svg"><g clip-path="url(#clip0)" fill="#236EFF"><path d="M15.734 7.617a.742.742 0 101.485 0 .742.742 0 00-1.485 0zM29.836 22.61c-4.502 0-8.164 3.662-8.164 8.163 0 4.502 3.662 8.165 8.164 8.165S38 35.275 38 30.773c0-4.501-3.662-8.164-8.164-8.164zm0 14.843a6.687 6.687 0 01-6.68-6.68 6.687 6.687 0 016.68-6.68 6.687 6.687 0 016.68 6.68 6.687 6.687 0 01-6.68 6.68z"/><path d="M29.91 29.977a.743.743 0 010-1.485c.264 0 .541.134.803.388a.742.742 0 001.033-1.067 2.866 2.866 0 00-1.093-.683v-.864a.742.742 0 00-1.484 0v.87a2.23 2.23 0 00-1.485 2.098 2.23 2.23 0 002.227 2.227.743.743 0 010 1.484c-.317 0-.66-.2-.964-.561a.742.742 0 00-1.136.955c.397.472.863.8 1.358.967v.866a.742.742 0 001.484 0v-.87a2.23 2.23 0 001.484-2.099 2.229 2.229 0 00-2.226-2.226zm-6.842-19.041a.743.743 0 00-.036-.762l-5.938-8.906a.742.742 0 00-1.235 0l-5.937 8.906a.742.742 0 00.617 1.154h2.227v8.313H7.125a.742.742 0 00-.742.742v3.71H.743a.742.742 0 00-.743.743v13.36c0 .41.332.742.742.742h18.703c.41 0 .742-.333.742-.743V11.328h2.227a.74.74 0 00.654-.392zM1.484 25.578h4.899v11.875H1.484V25.578zm6.383-4.453h4.899v16.328H7.867V21.125zM19.445 9.844a.742.742 0 00-.742.742v26.867H14.25V10.586a.742.742 0 00-.742-.742h-1.582l4.55-6.826 4.551 6.826h-1.582z"/><path d="M16.477 9.844a.742.742 0 00-.743.742v4.453a.742.742 0 001.485 0v-4.453a.742.742 0 00-.742-.742z"/></g><defs><clipPath id="clip0"><path fill="#236EFF" transform="translate(0 .938)" d="M0 0h38v38H0z"/></clipPath></defs></svg>
